X:1
T:Title
%%score { 1 | ( 2 3 ) }
L:1/8
M:3/4
K:Ab
V:1 treble nm="Grand Piano"
V:2 treble 
V:3 treble 
V:1
 z2 z2[Q:1/4=100] c>d | [Ec]3 B [E,DE]B | [CA]2 [A,CE]2 c>d | [Ec]3 B [E,DE]B |[M:2/4] [CA]4 | %5
[M:1/4] c>d |[M:3/4] [Ec]3 B [E,DE]B | [CA]2 [CE]2 [FB][Ec] | [Ge]d [Ec]2 [G,DB]2 |[M:2/4] [CA]4 | %10
[M:1/4] [EAc]>[EAc] |[M:3/4] [EGB]3 [B,EG] [Bd][Ac] | [Ac]2 [GB]2 B>c | d3 B e>d | [Ec]4 c>d | %15
 c3 B EB | [CA]2 [CE]2 [FB][Ec] | [Ge][Fd] [Ec]2 [DB]2 |[M:2/4] [CA]4 |] %19
V:2
 z2 z2 E>F | z E, G,D E,,D | z E, A,,2[K:treble] E>F | z E, G,D E,,D |[M:2/4] z E, A,2 | %5
[M:1/4][K:treble] E>F |[M:3/4][K:bass] z E, G,D E,,D | z E, A,2 D,C, | z F E,2 E,,2 | %9
[M:2/4] z E, A,2 |[M:1/4] A,>A, |[M:3/4] E,3 E, [E,G,][E,A,] | [E,E]2 [E,E]2 [E,G,E]>[E,A,E] | %13
 [E,B,E]3 [E,G,E] [E,CE]>[E,B,E] | [A,,A,]4[K:treble] [A,E]>[A,F] | %15
 [E,G,E]3 [E,G,D] [E,G,D][E,G,D] | [A,,A,]2 [A,,A,]2 [D,F,][C,=A,] | %17
 [B,,B,][B,,B,] [E,G,]2 [E,G,]2 |[M:2/4] [A,,A,]4 |] %19
V:3
 x6 | E,,4 z2 | A,,2 z2[K:treble] z2 | E,,4 z2 |[M:2/4] A,,4 |[M:1/4][K:treble] x2 | %6
[M:3/4][K:bass] E,,4 z2 | A,,4 z2 | B,,2 z2 z2 |[M:2/4] A,,4 |[M:1/4] x2 |[M:3/4] x6 | x6 | x6 | %14
 x4[K:treble] x2 | x6 | x6 | x6 |[M:2/4] x4 |] %19

